apps/common/mobile/resources/icons/common/icon-table-remove-column-rtl.svg

<svg width="24" height="24" viewBox="0 0 24 24" xmlns="http://www.w3.org/2000/svg">
<path d="M3.5 3.54297C2.53351 3.54298 1.75 4.32648 1.75 5.29297V18.293C1.75004 19.2594 2.53353 20.043 3.5 20.043H13.4395C13.5532 19.565 13.7935 19.1111 14.166 18.7383L14.3613 18.543H9.25V15.043H13.3633C13.3585 14.3336 13.6255 13.6232 14.166 13.082L14.167 13.0811C15.2409 12.0072 16.9827 12.0071 18.0566 13.0811L18.9404 13.9648L19.8242 13.0811C20.2287 12.6766 20.7276 12.424 21.25 12.3242V5.29297C21.25 4.32647 20.4665 3.54297 19.5 3.54297H3.5ZM7.75 18.543H3.5C3.36196 18.543 3.25004 18.431 3.25 18.293V15.043H7.75V18.543ZM13.75 13.543H9.25V10.043H13.75V13.543ZM7.75 13.543H3.25V10.043H7.75V13.543ZM13.75 8.54297H9.25V5.04297H13.75V8.54297ZM7.75 8.54297H3.25V5.29297C3.25 5.1549 3.36193 5.04297 3.5 5.04297H7.75V8.54297Z" fill="#444444"/>
<path fill-rule="evenodd" clip-rule="evenodd" d="M16.6415 14.4951C16.3486 14.2022 15.8739 14.2022 15.581 14.4951C15.2885 14.788 15.2882 15.2629 15.581 15.5556L17.8788 17.8535L15.581 20.1513C15.2883 20.4442 15.2883 20.919 15.581 21.2119C15.8738 21.5047 16.3486 21.5046 16.6415 21.2119L18.9394 18.914L21.2382 21.2119C21.5311 21.5047 22.0059 21.5046 22.2988 21.2119C22.5914 20.9189 22.5916 20.4441 22.2988 20.1513L19.9999 17.8535L22.2988 15.5556C22.5916 15.2628 22.5914 14.788 22.2988 14.4951C22.0059 14.2022 21.5311 14.2022 21.2382 14.4951L18.9394 16.7929L16.6415 14.4951Z" fill="#FF3B30"/>
</svg>

<svg xmlns="http://www.w3.org/2000/svg" width="24" height="24" fill="none" viewBox="0 0 24 24">
  <g class="icon-table-remove-column-rtl" clip-path="url(#a)">
    <path fill="#FF3B30" d="M15.585 15.558a.75.75 0 0 1 1.06-1.06l2.299 2.298 2.298-2.298a.75.75 0 1 1 1.06 1.06l-2.298 2.299 2.299 2.298a.75.75 0 1 1-1.06 1.06l-2.3-2.297-2.297 2.297a.75.75 0 0 1-1.06-1.06l2.297-2.298-2.298-2.299Z" class="icon-fill-red"/>
    <path fill="#444" fill-rule="evenodd" d="M3.504 3.546a1.75 1.75 0 0 0-1.75 1.75v13c0 .966.784 1.75 1.75 1.75h9.94a2.74 2.74 0 0 1 .726-1.305l.196-.195H9.254v-3.5h4.114c-.005-.71.262-1.42.802-1.961l.001-.001a2.75 2.75 0 0 1 3.89 0l.884.884.884-.884a2.737 2.737 0 0 1 1.425-.757V5.296a1.75 1.75 0 0 0-1.75-1.75h-16Zm4.25 15h-4.25a.25.25 0 0 1-.25-.25v-3.25h4.5v3.5Zm6-5h-4.5v-3.5h4.5v3.5Zm-6 0h-4.5v-3.5h4.5v3.5Zm6-5h-4.5v-3.5h4.5v3.5Zm-6 0h-4.5v-3.25a.25.25 0 0 1 .25-.25h4.25v3.5Z" class="icon-fill-gray-primary" clip-rule="evenodd"/>
  </g>
  <defs>
    <clipPath id="a" class="a">
      <path fill="#fff" d="M0 0h24v24H0z"/>
    </clipPath>
  </defs>
</svg>
